assets/images/avatars/user/custom-avatars/season-f1/helmet-blue400.svg

<svg width="52" height="52" viewBox="0 0 52 52" fill="none" xmlns="http://www.w3.org/2000/svg">
<g clip-path="url(#clip0_26_81609)">
<rect width="52" height="52" fill="#0185FF"/>
<path d="M26 52C40.3594 52 52 40.3594 52 26C52 11.6406 40.3594 0 26 0C11.6406 0 0 11.6406 0 26C0 40.3594 11.6406 52 26 52Z" fill="#0185FF"/>
<path d="M26 46.7669C37.4692 46.7669 46.7668 37.4693 46.7668 26.0002C46.7668 14.531 37.4692 5.2334 26 5.2334C14.5309 5.2334 5.23328 14.531 5.23328 26.0002C5.23328 37.4693 14.5309 46.7669 26 46.7669Z" fill="#0185FF" stroke="#002140" stroke-width="0.65" stroke-miterlimit="10"/>
<path d="M21.5559 32.5555C20.843 32.5797 20.1092 32.5555 19.3581 32.4759C17.5722 32.282 16.1635 31.9463 15.0629 31.5725L15.0836 31.5171L29.8384 22.5632L29.8903 22.2725C30.9425 22.4628 31.9013 22.6809 32.7042 22.9266C32.7042 22.9266 32.7735 24.5118 32.635 25.7613L32.462 25.744L21.549 32.2578L21.5559 32.5555Z" fill="#B0D9FF"/>
<path d="M11.8959 29.704L11.7644 29.7698C11.6536 29.6729 11.574 29.5932 11.5152 29.5344C11.3594 28.2192 11.3664 26.762 11.446 25.613H11.4702L18.5067 21.2208V21.1758C20.5833 21.2519 22.9438 21.4008 25.2213 21.6327C25.2316 21.6327 25.242 21.6327 25.2524 21.6361L25.242 21.733L11.8959 29.704Z" fill="#B0D9FF"/>
<path d="M33.6456 9.96129L33.6006 10.0478C31.0706 10.6812 29.1116 12.3564 27.6856 14.5404C26.3219 16.6343 25.5812 19.0814 25.2282 21.5595L25.2212 21.6322C22.9438 21.4003 20.5833 21.2515 18.5101 21.1753C17.4095 21.1373 16.3919 21.1165 15.5059 21.1165V20.9608C16.4404 16.9735 18.6105 13.3394 21.7047 10.6051V10.5981C23.3626 9.59441 25.0378 9.01986 26.8895 8.74989C29.205 8.41416 31.5724 8.88834 33.6456 9.96129Z" fill="#5AB0FF"/>
<path d="M19.1539 12.4701C20.0158 11.726 20.8568 11.1064 21.7013 10.5977V10.6046C18.6105 13.3389 16.4404 16.9731 15.5059 20.9603V21.116C14.8241 21.116 14.2253 21.1264 13.7303 21.1472V21.1333C14.7306 17.8072 16.5339 14.7406 19.1539 12.4701Z" fill="#5AB0FF"/>
<path d="M12.8339 30.5547C13.3565 30.8766 14.0487 31.2192 14.9555 31.5376L14.9417 31.5792C15.184 34.6457 15.6581 37.6915 16.4611 40.6612L16.4231 40.7512C15.7274 40.4708 15.0524 40.1282 14.4156 39.7267L14.3706 39.6817C13.6161 36.5874 13.0311 33.642 12.8339 30.5582V30.5547Z" fill="#5AB0FF"/>
<path d="M14.9417 31.5796L14.9555 31.5381C14.9901 31.5485 15.0247 31.5623 15.0628 31.5727C16.1634 31.9465 17.5721 32.2822 19.3581 32.476C20.1091 32.5557 20.8429 32.5799 21.5559 32.5557C22.6704 32.528 23.7329 32.3861 24.7228 32.1819C24.7159 35.0615 24.747 38.0139 24.9443 41.1323L24.9755 41.25C22.3208 42.0184 19.4307 41.8696 16.8418 40.9143C16.6999 40.8658 16.5615 40.8104 16.423 40.7516L16.4611 40.6616C15.6581 37.692 15.1839 34.6462 14.9417 31.5796Z" fill="#5AB0FF"/>
<path d="M37.8025 13.4748C40.2945 16.8252 41.1183 21.2104 40.7064 25.3673C40.3914 28.5723 39.5331 31.2858 38.5467 34.3523V34.4077C38.0656 34.5289 37.5879 34.6777 37.1207 34.8542C35.5147 35.4495 33.9918 36.3286 32.5381 37.2458C30.8007 38.3396 29.0805 39.5129 27.2322 40.3816L27.1872 40.2847C27.0488 37.2735 26.9865 34.4839 27.028 31.6665L26.9934 31.5627C29.9008 30.6005 31.7663 29.2783 31.7663 29.2783C31.7663 29.2783 32.3651 27.4889 32.5762 26.2083C32.6004 26.0664 32.6212 25.9176 32.635 25.7618C32.7735 24.5124 32.7043 22.9272 32.7043 22.9272C31.9013 22.6814 30.9426 22.4634 29.8904 22.273C29.1705 22.138 28.409 22.0203 27.6164 21.9165L27.6303 21.8161C27.9141 19.9679 28.3917 18.1473 29.2085 16.4895C30.4268 14.0113 32.9362 11.5331 35.6912 11.3289L35.7085 11.3047C36.4942 11.9381 37.2003 12.6649 37.8025 13.4748Z" fill="#5AB0FF"/>
<path d="M21.549 32.258L32.4619 25.7441L32.6349 25.7614C32.6211 25.9172 32.6003 26.066 32.5761 26.2079C32.365 27.4885 31.7662 29.278 31.7662 29.278C31.7662 29.278 29.9007 30.6001 26.9933 31.5623C26.2942 31.8011 25.5327 32.0122 24.7228 32.1818C23.7329 32.3861 22.6704 32.528 21.5559 32.5556L21.549 32.258Z" fill="#002140"/>
<path d="M15.0836 31.5173L15.0629 31.5726C15.0248 31.5623 14.9902 31.5484 14.9556 31.538C14.0487 31.2196 13.3565 30.877 12.8339 30.5551C12.3355 30.254 11.9894 29.9771 11.7644 29.7694L11.8959 29.7036L25.242 21.7327L25.2524 21.6357C26.0554 21.7153 26.848 21.8088 27.6164 21.9161C28.409 22.0199 29.1704 22.1376 29.8903 22.2726L29.8384 22.5633L15.0836 31.5173Z" fill="#002140"/>
<path d="M11.4702 25.2696C11.5982 23.7778 12.0689 22.1165 12.2801 21.3066C12.4877 21.2304 12.9965 21.1785 13.7303 21.1474C14.2252 21.1266 14.824 21.1162 15.5058 21.1162C16.3919 21.1162 17.4094 21.137 18.5101 21.175V21.22L11.4702 25.6122H11.4459C11.4528 25.4945 11.4598 25.3803 11.4702 25.2696Z" fill="#002140"/>
<path d="M16.8419 40.9139C19.4308 41.8692 22.3209 42.018 24.9756 41.2497C24.9963 41.2497 25.0171 41.2393 25.0379 41.2324C25.7924 41.0074 26.5227 40.7167 27.2322 40.3809C29.0805 39.5122 30.8007 38.3389 32.5381 37.2451C33.9918 36.3279 35.5147 35.4488 37.1207 34.8535L37.138 34.9054C37.5672 35.2481 37.4426 35.9818 37.2591 36.1895C37.0757 36.4006 36.8023 36.5079 36.5427 36.6118C32.2751 38.3319 30.1846 41.3708 25.6747 42.2949C24.221 42.5926 22.847 42.7345 21.3622 42.6653C20.0192 42.6064 18.5483 42.3676 17.3265 41.6996C17.1603 41.6096 16.6723 41.3881 16.8419 40.9174V40.9139Z" fill="#002140"/>
<path d="M13.7303 21.1338C14.7306 17.8077 16.5339 14.7411 19.1539 12.4706C20.0158 11.7265 20.8568 11.1069 21.7013 10.5981C23.3627 9.59441 25.0379 9.01986 26.8896 8.74989C29.2051 8.41416 31.5725 8.88834 33.6457 9.96129C34.376 10.3351 35.0682 10.7885 35.7085 11.3042C36.4942 11.9376 37.2003 12.6644 37.8025 13.4743C40.2945 16.8247 41.1183 21.21 40.7064 25.3668C40.3914 28.5718 39.5331 31.2853 38.5466 34.3519" stroke="#002140" stroke-width="0.65" stroke-linecap="round" stroke-linejoin="round"/>
<path d="M14.3706 39.6821C13.6161 36.5879 13.0311 33.6425 12.8339 30.5586" stroke="#002140" stroke-width="0.65" stroke-linecap="round" stroke-linejoin="round"/>
<path d="M14.4156 39.727C15.0525 40.1285 15.7274 40.4711 16.4231 40.7515C16.5615 40.8103 16.7 40.8657 16.8419 40.9141C19.4308 41.8694 22.3209 42.0182 24.9756 41.2499C24.9963 41.2499 25.0171 41.2395 25.0379 41.2326C25.7924 41.0076 26.5227 40.7169 27.2322 40.3811C29.0805 39.5124 30.8006 38.3391 32.5381 37.2453C33.9918 36.3281 35.5147 35.449 37.1207 34.8537C37.5879 34.6772 38.0655 34.5284 38.5501 34.4072" stroke="#002140" stroke-width="0.65" stroke-linecap="round" stroke-linejoin="round"/>
<path d="M27.0279 31.666C26.9864 34.4834 27.0487 37.2731 27.1872 40.2842" stroke="#002140" stroke-width="0.65" stroke-linecap="round" stroke-linejoin="round"/>
<path d="M35.6912 11.3281C32.9362 11.5323 30.4268 14.0105 29.2085 16.4887C28.3917 18.1465 27.9141 19.9671 27.6302 21.8153" stroke="#002140" stroke-width="0.65" stroke-linecap="round" stroke-linejoin="round"/>
<path d="M24.7228 32.1787C24.7159 35.0618 24.747 38.0142 24.9443 41.1326" stroke="#002140" stroke-width="0.65" stroke-linecap="round" stroke-linejoin="round"/>
<path d="M33.6006 10.0479C31.0705 10.6812 29.1115 12.3564 27.6856 14.5404C26.3219 16.6344 25.5812 19.0814 25.2281 21.5596" stroke="#002140" stroke-width="0.65" stroke-linecap="round" stroke-linejoin="round"/>
<path d="M14.9417 31.5791C15.1839 34.6457 15.6581 37.6915 16.4611 40.6611" stroke="#002140" stroke-width="0.65" stroke-linecap="round" stroke-linejoin="round"/>
<path d="M21.7047 10.6055C18.6105 13.3398 16.4404 16.9739 15.5059 20.9612" stroke="#002140" stroke-width="0.65" stroke-linecap="round" stroke-linejoin="round"/>
<path d="M11.446 25.6122C11.4529 25.4945 11.4598 25.3803 11.4702 25.2696C11.5983 23.7778 12.069 22.1165 12.2801 21.3066C12.4878 21.2304 12.9966 21.1785 13.7303 21.1474C14.2253 21.1266 14.824 21.1162 15.5059 21.1162C16.3919 21.1162 17.4095 21.137 18.5101 21.175C20.5833 21.2512 22.9438 21.4 25.2213 21.6319C25.2316 21.6319 25.242 21.6319 25.2524 21.6354C26.0554 21.715 26.848 21.8084 27.6164 21.9157C28.409 22.0196 29.1704 22.1372 29.8903 22.2722C30.9425 22.4626 31.9012 22.6806 32.7042 22.9264C32.7042 22.9264 32.7734 24.5116 32.635 25.761C32.6212 25.9168 32.6004 26.0656 32.5762 26.2075C32.365 27.4881 31.7663 29.2775 31.7663 29.2775C31.7663 29.2775 29.9007 30.5997 26.9934 31.5619C26.2942 31.8007 25.5328 32.0118 24.7229 32.1814C23.733 32.3856 22.6704 32.5275 21.5559 32.5552C20.8429 32.5795 20.1092 32.5552 19.3581 32.4756C17.5722 32.2818 16.1635 31.9461 15.0628 31.5723C15.0248 31.5619 14.9902 31.548 14.9556 31.5377C14.0487 31.2192 13.3565 30.8766 12.8339 30.5547C12.3355 30.2536 11.9894 29.9767 11.7644 29.769C11.6536 29.6721 11.574 29.5925 11.5152 29.5337C11.3594 28.2184 11.3664 26.7613 11.446 25.6122Z" stroke="#002140" stroke-width="0.65" stroke-linecap="round" stroke-linejoin="round"/>
<path d="M16.8419 40.9173C16.6723 41.388 17.1603 41.6095 17.3265 41.6995C18.5483 42.3675 20.0192 42.6063 21.3622 42.6651C22.847 42.7343 24.221 42.5924 25.6747 42.2948C30.1846 41.3707 32.2751 38.3318 36.5427 36.6116C36.8023 36.5078 37.0757 36.4005 37.2591 36.1893C37.4426 35.9817 37.5672 35.2479 37.138 34.9053" stroke="#002140" stroke-width="0.65" stroke-linecap="round" stroke-linejoin="round"/>
</g>
<defs>
<clipPath id="clip0_26_81609">
<rect width="52" height="52" fill="white"/>
</clipPath>
</defs>
</svg>

<svg xmlns="http://www.w3.org/2000/svg" width="52" height="52" fill="none" viewBox="0 0 52 52"><g clip-path="url(#a)"><path fill="#0185ff" d="M0 0h52v52H0z"/><path fill="#0185ff" d="M26 52c14.36 0 26-11.64 26-26S40.36 0 26 0 0 11.64 0 26s11.64 26 26 26"/><path fill="#0185ff" stroke="#002140" stroke-miterlimit="10" stroke-width=".65" d="M26 46.767c11.47 0 20.767-9.298 20.767-20.767S37.469 5.233 26 5.233C14.53 5.233 5.233 14.531 5.233 26c0 11.47 9.298 20.767 20.767 20.767Z"/><path fill="#b0d9ff" d="M21.556 32.556q-1.07.038-2.198-.08c-1.786-.194-3.195-.53-4.295-.903l.02-.056 14.755-8.954.052-.29c1.052.19 2.011.408 2.814.654 0 0 .07 1.585-.069 2.834l-.173-.017-10.913 6.514zm-9.66-2.852-.132.066c-.11-.097-.19-.177-.249-.236-.156-1.315-.149-2.772-.069-3.921h.024l7.037-4.392v-.045c2.076.076 4.437.225 6.714.457q.016 0 .031.003l-.01.097z"/><path fill="#5ab0ff" d="m33.646 9.961-.045.087c-2.53.633-4.49 2.308-5.915 4.492-1.364 2.094-2.105 4.541-2.458 7.02l-.007.072c-2.277-.232-4.638-.38-6.71-.457a89 89 0 0 0-3.005-.059v-.155a19.9 19.9 0 0 1 6.199-10.356v-.007c1.658-1.004 3.333-1.578 5.185-1.848 2.315-.336 4.682.138 6.756 1.211"/><path fill="#5ab0ff" d="M19.154 12.47a18.6 18.6 0 0 1 2.547-1.872v.007a19.93 19.93 0 0 0-6.195 10.355v.156c-.682 0-1.28.01-1.776.031v-.014c1-3.326 2.804-6.392 5.424-8.663m-6.32 18.085c.523.322 1.215.664 2.122.983l-.014.041c.242 3.067.716 6.112 1.52 9.082l-.039.09c-.696-.28-1.37-.623-2.007-1.024l-.045-.045c-.755-3.095-1.34-6.04-1.537-9.124z"/><path fill="#5ab0ff" d="m14.942 31.58.014-.042.107.035c1.1.373 2.51.71 4.295.903q1.128.118 2.198.08a18 18 0 0 0 3.167-.374c-.007 2.88.024 5.832.221 8.95l.032.118c-2.655.768-5.545.62-8.134-.336a6 6 0 0 1-.419-.162l.038-.09c-.803-2.97-1.277-6.016-1.52-9.082m22.862-18.105c2.492 3.35 3.315 7.735 2.903 11.892-.315 3.205-1.173 5.919-2.16 8.985v.056c-.48.12-.958.27-1.425.446-1.606.596-3.13 1.475-4.583 2.392-1.737 1.094-3.457 2.267-5.306 3.136l-.045-.097c-.138-3.011-.2-5.801-.159-8.618l-.035-.104c2.908-.962 4.773-2.285 4.773-2.285s.6-1.79.81-3.07q.037-.212.059-.446c.139-1.25.07-2.835.07-2.835-.804-.246-1.762-.464-2.815-.654a42 42 0 0 0-2.274-.357l.014-.1c.284-1.848.762-3.669 1.579-5.326 1.218-2.479 3.727-4.957 6.482-5.161l.017-.024a12 12 0 0 1 2.095 2.17"/><path fill="#002140" d="m21.549 32.258 10.913-6.514.173.017a6 6 0 0 1-.059.447c-.211 1.28-.81 3.07-.81 3.07s-1.865 1.322-4.773 2.284c-.699.24-1.46.45-2.27.62a18 18 0 0 1-3.167.374zm-6.465-.741-.021.056c-.038-.01-.073-.025-.107-.035-.907-.318-1.6-.661-2.122-.983a6.6 6.6 0 0 1-1.07-.786l.132-.065 13.346-7.971.01-.097c.803.08 1.596.173 2.364.28a42 42 0 0 1 2.274.357l-.052.29zM11.47 25.27c.128-1.492.599-3.154.81-3.963.208-.077.716-.128 1.45-.16.495-.02 1.094-.03 1.776-.03.886 0 1.903.02 3.004.058v.045l-7.04 4.392h-.024q.01-.176.024-.342m5.372 15.644c2.589.955 5.479 1.104 8.134.336.02 0 .041-.01.062-.018a15.5 15.5 0 0 0 2.194-.851c1.849-.869 3.569-2.042 5.306-3.136 1.454-.917 2.977-1.796 4.583-2.392l.017.052c.43.343.305 1.077.121 1.285-.183.21-.457.318-.716.422-4.268 1.72-6.358 4.759-10.868 5.683-1.454.298-2.828.44-4.313.37-1.343-.059-2.814-.297-4.035-.965-.167-.09-.655-.312-.485-.783z"/><path stroke="#002140" stroke-linecap="round" stroke-linejoin="round" stroke-width=".65" d="M13.73 21.134c1-3.326 2.804-6.393 5.424-8.663a18.6 18.6 0 0 1 2.547-1.873c1.662-1.004 3.337-1.578 5.189-1.848 2.315-.336 4.683.138 6.756 1.211a12.15 12.15 0 0 1 4.156 3.513c2.492 3.35 3.316 7.736 2.904 11.893-.315 3.205-1.173 5.918-2.16 8.985m-24.176 5.33c-.754-3.094-1.339-6.04-1.536-9.123m1.582 9.168a12.6 12.6 0 0 0 2.007 1.025q.207.088.419.162c2.589.955 5.479 1.104 8.134.336.02 0 .041-.01.062-.017a15.5 15.5 0 0 0 2.194-.852c1.849-.869 3.569-2.042 5.306-3.136 1.454-.917 2.977-1.796 4.583-2.391q.7-.266 1.43-.447"/><path stroke="#002140" stroke-linecap="round" stroke-linejoin="round" stroke-width=".65" d="M27.028 31.666c-.042 2.817.02 5.607.16 8.618m8.503-28.956c-2.755.204-5.264 2.683-6.483 5.16-.816 1.659-1.294 3.48-1.578 5.327m-2.907 10.364c-.007 2.883.024 5.835.221 8.954M33.6 10.048c-2.53.633-4.489 2.308-5.914 4.492-1.364 2.094-2.105 4.541-2.458 7.02M14.942 31.58c.242 3.066.716 6.111 1.52 9.081m5.243-30.055a19.9 19.9 0 0 0-6.2 10.355"/><path stroke="#002140" stroke-linecap="round" stroke-linejoin="round" stroke-width=".65" d="M11.446 25.612q.01-.176.024-.342c.128-1.492.599-3.154.81-3.963.208-.077.717-.128 1.45-.16a43 43 0 0 1 1.776-.03c.886 0 1.904.02 3.004.058a107 107 0 0 1 6.742.46c.803.08 1.596.173 2.364.28.793.105 1.554.222 2.274.357 1.052.19 2.011.409 2.814.654 0 0 .07 1.586-.069 2.835a6 6 0 0 1-.059.447c-.211 1.28-.81 3.07-.81 3.07s-1.865 1.322-4.773 2.284c-.699.239-1.46.45-2.27.62-.99.204-2.053.346-3.167.373q-1.07.039-2.198-.08c-1.786-.193-3.195-.529-4.295-.903-.038-.01-.073-.024-.107-.034-.907-.319-1.6-.661-2.122-.983a6.6 6.6 0 0 1-1.319-1.021c-.156-1.316-.149-2.773-.069-3.922m5.396 15.305c-.17.471.318.692.485.782 1.221.669 2.692.907 4.035.966 1.485.07 2.859-.073 4.313-.37 4.51-.924 6.6-3.963 10.868-5.683.26-.104.533-.212.716-.423.184-.207.308-.941-.121-1.284"/></g><defs><clipPath id="a"><path fill="#fff" d="M0 0h52v52H0z"/></clipPath></defs></svg>
